palemoon/sliders/knob_pitch_deck.svg

<svg width="40" height="17" version="1.1" xmlns="http://www.w3.org/2000/svg">
  <path d="m5.7942 15.1483c0.60561 0.57244 1.4882 0.85239 2.062 0.85238l25.6571-6.81e-4c1.4154 3.51e-4 2.7757-1.0248 2.9852-2.6991 0.01105 2.1371-0.42549 3.6991-2.3306 3.6991l-25.8111-1.9e-5c-1.0882-1e-6 -2.3492-0.629739-2.5625-1.8517z" color="#000000" opacity=".15"/>
  <path d="m5.2942 14.1833c0.69268 0.64195 1.4882 0.81723 2.062 0.817221l25.5551-6.81e-4c2.1018-5.6e-5 3.1018-1.6525 3.1018-2.9996l-0.01306-2.00024h-1v-3l1.01306 2.4e-4c0-0.57381-0.198501-1.2921-0.58032-1.7777 0.86256 0.52578 1.0808 1.6891 1.0808 2.7773v5c0 1.662-1.338 3-3 3l-25.6571-1.9e-5c-1.0882-1e-6 -2.5339-0.85452-2.5625-1.8165z" color="#000000" opacity=".5"/>
  <path d="m7.35547 4.00197c-1.66134-1.8e-6 -2.99894 1.33697-3 2.99805h0.644531v3h-0.644531v2.00195c0 1.662 1.338 3 3 3l25.6582-1.9e-5c1.662 3e-6 3-1.338 3-3l-0.013671-2.00195h-1v-3l1.01367 2e-3c0.0076-1.66198-1.338-3-3-3z" color="#000000" opacity=".8"/>
  <path d="m6 3.00002 28-1.85e-5c1.108-7e-7 2 0.892 2 2v3c0 1.108-0.892001 2-2 2l-28 1.8e-5c-1.108 1e-6 -2-0.892-2-2v-3c0-1.108 0.892-2 2-2z" fill="#2a2a2a"/>
  <path d="m5 4h30.0004c0.554 0 1 0.864574 1 1.93851v1.12267c0 1.07393-0.446 1.93851-1 1.93851h-30.0004c-0.554 0-1-0.864574-1-1.93851v-1.12267c0-1.07393 0.446-1.93851 1-1.93851z" fill="#141414"/>
  <path d="m6 7.00002 28-1.85e-5c1.108-7e-7 2 0.892 2 2v3c0 1.108-0.892001 2-2 2l-28 1.8e-5c-1.108 1e-6 -2-0.891999-2-2v-3c0-1.108 0.892-2 2-2z" fill="#050505"/>
  <path d="m5.0004 8h30c0.554 0 1 0.864574 1 1.93851v1.12299c0 1.07393-0.446 1.93851-1 1.93851h-30c-0.554 0-1-0.864574-1-1.93851v-1.12299c0-1.07393 0.446-1.93851 1-1.93851z" fill="#1a1a1a"/>
  <path d="m5 7.00002 30-1.85e-5v1l-30 1.85e-5z" fill="#561e0e"/>
  <path d="m5 9.00002 30-1.85e-5v1l-30 1.8e-5z" fill="#a74a17"/>
  <path d="m5 8.00002 30-1.85e-5v1l-30 1.85e-5z" fill="#8d3b13"/>
  <path d="m36 7h-1v1h1z" fill="#37110b"/>
  <path d="m36 9h-1v1h1z" fill="#7a3612"/>
  <path d="m36 8h-1v1h1z" fill="#57240d"/>
  <path d="m5 8.9997h-1v1h1z" fill="#b35115"/>
  <path d="m5 7.9997h-1v1h1z" fill="#994311"/>
  <path d="m4.0004 7.00002h0.9996v1h-0.9996z" fill="#61230d"/>
</svg>

<?xml version="1.0" encoding="utf-8"?>
<!-- Generator: Adobe Illustrator 28.4.1, SVG Export Plug-In . SVG Version: 6.00 Build 0)  -->
<svg version="1.1" id="Laag_1" xmlns="http://www.w3.org/2000/svg" xmlns:xlink="http://www.w3.org/1999/xlink" x="0px" y="0px"
	 viewBox="0 0 40 17" style="enable-background:new 0 0 40 17;" xml:space="preserve">
<style type="text/css">
	.st0{opacity:0.15;enable-background:new    ;}
	.st1{opacity:0.5;enable-background:new    ;}
	.st2{opacity:0.8;enable-background:new    ;}
	.st3{fill:#2A2A2A;}
	.st4{fill:#141414;}
	.st5{fill:#050505;}
	.st6{fill:#1A1A1A;}
	.st7{fill:#4E006C;}
	.st8{fill:#AC00F0;}
	.st9{fill:#7800A8;}
	.st10{fill:#3B0052;}
	.st11{fill:#9A00D6;}
	.st12{fill:#66008F;}
	.st13{fill:#BA0AFF;}
	.st14{fill:#8B00C2;}
	.st15{fill:#5F0085;}
</style>
<path class="st0" d="M5.8,15.1C6.4,15.7,7.3,16,7.9,16l25.7,0c1.4,0,2.8-1,3-2.7c0,2.1-0.4,3.7-2.3,3.7L8.4,17
	C7.3,17,6,16.4,5.8,15.1L5.8,15.1z"/>
<path class="st1" d="M5.3,14.2C6,14.8,6.8,15,7.4,15l25.6,0c2.1,0,3.1-1.7,3.1-3l0-2h-1V7l1,0c0-0.6-0.2-1.3-0.6-1.8
	c0.9,0.5,1.1,1.7,1.1,2.8v5c0,1.7-1.3,3-3,3L7.9,16C6.8,16,5.3,15.1,5.3,14.2L5.3,14.2z"/>
<path class="st2" d="M7.4,4c-1.7,0-3,1.3-3,3H5v3H4.4v2c0,1.7,1.3,3,3,3L33,15c1.7,0,3-1.3,3-3l0-2h-1V7l1,0c0-1.7-1.3-3-3-3L7.4,4z
	"/>
<path class="st3" d="M6,3l28,0c1.1,0,2,0.9,2,2v3c0,1.1-0.9,2-2,2L6,10c-1.1,0-2-0.9-2-2V5C4,3.9,4.9,3,6,3z"/>
<path class="st4" d="M5,4h30c0.6,0,1,0.9,1,1.9v1.1C36,8.1,35.6,9,35,9H5C4.4,9,4,8.1,4,7.1V5.9C4,4.9,4.4,4,5,4z"/>
<path class="st5" d="M6,7l28,0c1.1,0,2,0.9,2,2v3c0,1.1-0.9,2-2,2L6,14c-1.1,0-2-0.9-2-2V9C4,7.9,4.9,7,6,7z"/>
<path class="st6" d="M5,8h30c0.6,0,1,0.9,1,1.9v1.1c0,1.1-0.4,1.9-1,1.9H5c-0.6,0-1-0.9-1-1.9V9.9C4,8.9,4.4,8,5,8z"/>
<path class="st7" d="M5,7l30,0v1L5,8V7z"/>
<path class="st8" d="M5,9l30,0v1L5,10V9z"/>
<path class="st9" d="M5,8l30,0v1L5,9V8z"/>
<path class="st10" d="M36,7h-1v1h1V7z"/>
<path class="st11" d="M36,9h-1v1h1V9z"/>
<path class="st12" d="M36,8h-1v1h1V8z"/>
<path class="st13" d="M5,9H4v1h1V9z"/>
<path class="st14" d="M5,8H4v1h1V8z"/>
<path class="st15" d="M4,7h1v1H4V7z"/>
</svg>
